public/images/ic_search-grey.svg

<?xml version="1.0" encoding="UTF-8" standalone="no"?>
<svg width="24px" height="24px" viewBox="0 0 24 24" version="1.1" xmlns="http://www.w3.org/2000/svg" xmlns:xlink="http://www.w3.org/1999/xlink">
    <!-- Generator: Sketch 3.6.1 (26313) - http://www.bohemiancoding.com/sketch -->
    <title>search</title>
    <desc>Created with Sketch.</desc>
    <defs></defs>
    <g id="Page-2" stroke="none" stroke-width="1" fill="none" fill-rule="evenodd">
        <g id="iPad-Landscape-Copy-2" transform="translate(-40.000000, -1518.000000)" fill="#4A4A4A">
            <g id="search" transform="translate(40.000000, 1518.000000)">
                <path d="M16.6666667,14.6666667 L15.6,14.6666667 L15.2,14.2666667 C16.5333333,12.8 17.3333333,10.8 17.3333333,8.66666667 C17.3333333,3.86666667 13.4666667,0 8.66666667,0 C3.86666667,0 0,3.86666667 0,8.66666667 C0,13.4666667 3.86666667,17.3333333 8.66666667,17.3333333 C10.8,17.3333333 12.8,16.5333333 14.2666667,15.2 L14.6666667,15.6 L14.6666667,16.6666667 L21.3333333,23.3333333 L23.3333333,21.3333333 L16.6666667,14.6666667 L16.6666667,14.6666667 Z M8.66666667,14.6666667 C5.33333333,14.6666667 2.66666667,12 2.66666667,8.66666667 C2.66666667,5.33333333 5.33333333,2.66666667 8.66666667,2.66666667 C12,2.66666667 14.6666667,5.33333333 14.6666667,8.66666667 C14.6666667,12 12,14.6666667 8.66666667,14.6666667 L8.66666667,14.6666667 Z" id="Shape"></path>
            </g>
        </g>
    </g>
</svg>

<svg width="24" height="24" viewBox="0 0 24 24" xmlns="http://www.w3.org/2000/svg"><title>search</title><path d="M16.667 14.667H15.6l-.4-.4c1.333-1.467 2.133-3.467 2.133-5.6A8.65 8.65 0 0 0 8.667 0 8.65 8.65 0 0 0 0 8.667a8.65 8.65 0 0 0 8.667 8.666c2.133 0 4.133-.8 5.6-2.133l.4.4v1.067l6.666 6.666 2-2-6.666-6.666zm-8 0c-3.334 0-6-2.667-6-6 0-3.334 2.666-6 6-6 3.333 0 6 2.666 6 6 0 3.333-2.667 6-6 6z" fill="#4A4A4A" fill-rule="evenodd"/></svg>
